src/components/atoms/Icon/svgs/union.svg

<svg width="24" height="24" viewBox="0 0 12 13" fill="none" xmlns="http://www.w3.org/2000/svg">
    <path
        d="M4.88703 9.12508C4.88703 9.74204 5.38413 10.243 6 10.25C6.61587 10.243 7.11297 9.74204 7.11297 9.12508C7.11297 8.50811 6.61587 8.00714 6 8.00014C5.38413 8.00714 4.88703 8.50811 4.88703 9.12508Z"
        fill="currentColor" />
    <path fill-rule="evenodd" clip-rule="evenodd"
        d="M2.60012 7.18675C2.48597 7.43509 2.14987 7.52281 1.95646 7.32957L1.60191 6.97535C1.23545 6.60923 0.641303 6.60923 0.274845 6.97535C-0.091615 7.34147 -0.091615 7.93508 0.274845 8.3012L3.14151 11.1652C3.82746 11.9784 4.85316 12.4961 6 12.5C7.14684 12.4961 8.17254 11.9784 8.85849 11.1652L11.7252 8.3012C12.0916 7.93508 12.0916 7.34147 11.7252 6.97535C11.3587 6.60923 10.7645 6.60923 10.3981 6.97535L10.0435 7.32957C9.85013 7.52281 9.51403 7.43509 9.39988 7.18675C9.37739 7.1378 9.36514 7.08531 9.36514 7.03144L9.36514 2.74993C9.36514 2.23216 8.94502 1.81242 8.42677 1.81242C7.90852 1.81242 7.48839 2.23216 7.48839 2.74993L7.48839 4.91693C7.48839 5.10328 7.29733 5.22976 7.11948 5.1736C7.00693 5.13806 6.92562 5.03568 6.92562 4.91775L6.92562 1.43743C6.92562 0.923907 6.51237 0.506819 6 0.5C5.48763 0.506819 5.07438 0.923907 5.07438 1.43743L5.07438 4.91775C5.07438 5.03568 4.99307 5.13806 4.88052 5.1736C4.70267 5.22976 4.51161 5.10328 4.51161 4.91693L4.51161 2.74993C4.51161 2.23216 4.09148 1.81242 3.57323 1.81242C3.05498 1.81242 2.63486 2.23216 2.63486 2.74993L2.63486 7.03144C2.63486 7.08531 2.62261 7.1378 2.60012 7.18675ZM6 7.25003C4.34765 7.25991 3.01036 9.12502 3.01036 9.12502C3.01036 9.12502 4.34765 10.9901 6 11C7.65235 10.9901 8.98964 9.12502 8.98964 9.12502C8.98964 9.12502 7.65235 7.25991 6 7.25003Z"
        fill="currentColor" />
</svg>

<svg viewBox="0 0 12 13" fill="none" xmlns="http://www.w3.org/2000/svg">
    <path d="M4.887 9.125c0 .617.497 1.118 1.113 1.125A1.126 1.126 0 006 8a1.126 1.126 0 00-1.113 1.125z" fill="currentColor"/>
    <path fill-rule="evenodd" clip-rule="evenodd" d="M2.6 7.187c-.114.248-.45.336-.644.143l-.354-.355A.939.939 0 00.275 8.301l2.867 2.864A3.747 3.747 0 006 12.5a3.747 3.747 0 002.858-1.335l2.867-2.864a.937.937 0 10-1.327-1.326l-.354.355c-.194.193-.53.105-.644-.143a.371.371 0 01-.035-.156V2.75a.938.938 0 00-1.877 0v2.167c0 .186-.19.313-.369.257a.272.272 0 01-.193-.256v-3.48A.938.938 0 006 .5a.938.938 0 00-.926.937v3.48c0 .119-.08.221-.193.257-.178.056-.37-.07-.37-.257V2.75a.938.938 0 00-1.876 0v4.28a.371.371 0 01-.035.156zM6 7.25c-1.652.01-2.99 1.875-2.99 1.875S4.348 10.99 6 11c1.652-.01 2.99-1.875 2.99-1.875S7.652 7.26 6 7.25z" fill="currentColor"/>
</svg>
